X:1
T:Plymouth, CM
T:Alfred George Wathall, 1905
T:Plymouth, CM
T:Public Domain
C:Alfred George Wathall, 1905
Z:Public Domain
%%score ( 1 2 ) ( 3 4 )
L:1/8
M:3/4
K:D
V:1 treble 
V:2 treble 
V:3 bass 
V:4 bass 
V:1
 [DF]2 | [CF][CE] [CE]2 [CG]2 | [CF][CE] [CE]2 (DE) | [FA]3 [DF] [DB][DB] | [CE]4 [EA]2 | %5
 [Ad][Gc] [FB]2 F2 | [DB][DA] [DG]2 [B,D]2 | [A,D]3 [DF] [CF]>[CE] | [A,D]4 |] %9
V:2
 x2 | x6 | x4 A2 | x6 | x6 | x4 F2 | x6 | x6 | x4 |] %9
V:3
 [D,A,]2 | [A,,A,][A,,G,] [A,,G,]2 [A,,E,]2 | [A,,F,][A,,G,] (G,A,) (B,C) | %3
 [D,D]3 [F,A,] [E,^G,][E,G,] | A,4 [G,C]2 | [F,D][E,A,] [D,A,]2 [D,A,]2 | %6
 [D,F,][=C,F,] [B,,G,]2 [^G,,^E,]2 | [A,,F,]3 [A,,B,] [A,,A,]>[A,,G,] | [D,F,]4 |] %9
V:4
 x2 | x6 | x2 A,,2 A,,2 | x6 | A,4 x2 | x6 | x6 | x6 | x4 |] %9

